X:1
T:[ID 5-9]
T:[ID 5-9]
T:Bezeichnung standardisiert: Tantz Tantz In anderer Quelle: 14. Teusch - H. N. Philipp 1784 (Anm. S. Wascher); \"Ahnlich in dieser Quelle: ID 2-55b;
T:Urheber unbekannt Datum in der hier transkribierten schriftlichen Quelle: 1773
C:Urheber unbekannt
C:Datum in der hier transkribierten schriftlichen Quelle: 1773
L:1/8
M:2/4
K:D
V:1 treble 
V:1
 dd df | ee/c/ df | ee/c/ d2 | ff/g/ fa | gg/e/ fa | gg/e/ f2 :: ff/g/ af | ga b2 | ee/f/ ge | %9
 fg a2 | dd df | ee/c/ df | ee/c/ d2 :| %13

